icons/interfaces/ethernet.svg

<svg xmlns="http://www.w3.org/2000/svg" xml:space="preserve" width="800" height="800" viewBox="0 0 512 512"><path fill="#e3e6eb" d="M168 184.036c-6.632 0-12 5.376-12 12v23.752c0 6.628 5.368 12 12 12 6.624 0 12-5.372 12-12v-23.752c0-6.624-5.376-12-12-12M256 184.036c-6.632 0-12 5.376-12 12v23.752c0 6.628 5.368 12 12 12 6.624 0 12-5.372 12-12v-23.752c0-6.624-5.376-12-12-12M212 184.036c-6.632 0-12 5.376-12 12v23.752c0 6.628 5.368 12 12 12 6.624 0 12-5.372 12-12v-23.752c0-6.624-5.376-12-12-12"/><path fill="#e3e6eb" d="M460 0H52C23.28 0 0 23.28 0 52v408c0 28.72 23.28 52 52 52h408c28.72 0 52-23.28 52-52V52c0-28.72-23.28-52-52-52m-16 284h-88.024c-2.212 0-3.976 1.64-3.976 3.848V348H160v-60.152c0-2.208-1.616-3.848-3.828-3.848H68V68h44v92.184c0 6.624 5.368 12 12 12 6.624 0 12-5.376 12-12V68h20v92.184c0 6.624 5.368 12 12 12 6.624 0 12-5.376 12-12V68h20v92.184c0 6.624 5.368 12 12 12 6.624 0 12-5.376 12-12V68h20v92.184c0 6.624 5.368 12 12 12 6.624 0 12-5.376 12-12V68h20v92.184c0 6.624 5.368 12 12 12 6.624 0 12-5.376 12-12V68h20v92.184c0 6.624 5.368 12 12 12 6.624 0 12-5.376 12-12V68h20v92.184c0 6.624 5.368 12 12 12 6.624 0 12-5.376 12-12V68h44z"/><path fill="#e3e6eb" d="M124 184.036c-6.632 0-12 5.376-12 12v23.752c0 6.628 5.368 12 12 12 6.624 0 12-5.372 12-12v-23.752c0-6.624-5.376-12-12-12M388 184.036c-6.632 0-12 5.376-12 12v23.752c0 6.628 5.368 12 12 12 6.624 0 12-5.372 12-12v-23.752c0-6.624-5.376-12-12-12M344 184.036c-6.632 0-12 5.376-12 12v23.752c0 6.628 5.368 12 12 12 6.624 0 12-5.372 12-12v-23.752c0-6.624-5.376-12-12-12M300 184.036c-6.632 0-12 5.376-12 12v23.752c0 6.628 5.368 12 12 12 6.624 0 12-5.372 12-12v-23.752c0-6.624-5.376-12-12-12"/></svg>

<svg xmlns="http://www.w3.org/2000/svg" xml:space="preserve" width="800" height="800" viewBox="0 0 512 512"><path fill="#e3e6eb" d="M168 184.04c-6.632 0-12 5.376-12 12v23.752c0 6.628 5.368 12 12 12 6.624 0 12-5.372 12-12V196.04c0-6.624-5.376-12-12-12m88 0c-6.632 0-12 5.376-12 12v23.752c0 6.628 5.368 12 12 12 6.624 0 12-5.372 12-12V196.04c0-6.624-5.376-12-12-12m-44 0c-6.632 0-12 5.376-12 12v23.752c0 6.628 5.368 12 12 12 6.624 0 12-5.372 12-12V196.04c0-6.624-5.376-12-12-12"/><path fill="#e3e6eb" d="M460 0H52C23.28 0 0 23.28 0 52v408c0 28.72 23.28 52 52 52h408c28.72 0 52-23.28 52-52V52c0-28.72-23.28-52-52-52m-16 284h-88.024c-2.212 0-3.976 1.64-3.976 3.848V348H160v-60.152c0-2.208-1.616-3.848-3.828-3.848H68V68h44v92.184c0 6.624 5.368 12 12 12 6.624 0 12-5.376 12-12V68h20v92.184c0 6.624 5.368 12 12 12 6.624 0 12-5.376 12-12V68h20v92.184c0 6.624 5.368 12 12 12 6.624 0 12-5.376 12-12V68h20v92.184c0 6.624 5.368 12 12 12 6.624 0 12-5.376 12-12V68h20v92.184c0 6.624 5.368 12 12 12 6.624 0 12-5.376 12-12V68h20v92.184c0 6.624 5.368 12 12 12 6.624 0 12-5.376 12-12V68h20v92.184c0 6.624 5.368 12 12 12 6.624 0 12-5.376 12-12V68h44z"/><path fill="#e3e6eb" d="M124 184.04c-6.632 0-12 5.376-12 12v23.752c0 6.628 5.368 12 12 12 6.624 0 12-5.372 12-12V196.04c0-6.624-5.376-12-12-12m264 0c-6.632 0-12 5.376-12 12v23.752c0 6.628 5.368 12 12 12 6.624 0 12-5.372 12-12V196.04c0-6.624-5.376-12-12-12m-44 0c-6.632 0-12 5.376-12 12v23.752c0 6.628 5.368 12 12 12 6.624 0 12-5.372 12-12V196.04c0-6.624-5.376-12-12-12m-44 0c-6.632 0-12 5.376-12 12v23.752c0 6.628 5.368 12 12 12 6.624 0 12-5.372 12-12V196.04c0-6.624-5.376-12-12-12"/></svg>
